X: 50
T:Dance of the Honeybees
N: page 17
N: heptatonic
R: Hornpipe
M:C|
L:1/8
K:D Major
AG|"D"F2FE DFAF|"G"G2FG E3F|GFGA B{c}ded|"A"cege cAGE|"D" F2FE DFAF|
"G"G2FG E3F|GFGA B{c}ded|"A"cAGE "D"D2:: (3ABc|d2ad fded|BdAF DEFA|
"G"Beed Bded|"A"cdef gece|"D" d2ad fded|"G"BdAF "D"DEFA|"G"Bdef gfed|"A"cAGE "D"D2:|
